X:148
T:Scot's Hall. JJo8.148, The
B:J.Johnson Choice Collection Vol 8 1758
Z:vmp.Simon Wilson 2013 www.village-music-project.org.uk
T:Gallop & Shite,aka. JJo8.148
T:Cow's Corrant,aka. JJo8.148
T:
M:6/8
L:1/8
Q:3/8=120
K:D
g|fdB BdB|fdBTB2g|fdB BdB|ecATA2g|
fdB BdB|fdBTB2g|gbg faf|ecATA2:|
g|(f/g/a)f def|fdBTB2g|(f/g/a)f def|ecATA2g|
(f/g/a)f def|gbg faf|geg fdf|ecATA2:|
